src/images/misc/logo-main.svg

<svg width="218" height="31" viewBox="0 0 218 31" fill="none" xmlns="http://www.w3.org/2000/svg">
<path fill-rule="evenodd" clip-rule="evenodd" d="M12.5 2.5L26.2 26.3L22.9 28.2L9.19995 4.4L12.5 2.5Z" fill="#CC99FF"/>
<path fill-rule="evenodd" clip-rule="evenodd" d="M26.2 4.4L12.5 28.2L9.19995 26.3L22.9 2.5L26.2 4.4Z" fill="#CC99FF"/>
<path fill-rule="evenodd" clip-rule="evenodd" d="M5.9 11.8999L6.9 13.5999L7.9 15.2999L6.9 16.9999L5.9 18.7999H4H2L1 16.9999L0 15.2999L1 13.5999L2 11.8999H4H5.9Z" fill="white"/>
<path fill-rule="evenodd" clip-rule="evenodd" d="M19.7 11.8999L20.7 13.5999L21.7 15.2999L20.7 16.9999L19.7 18.7999H17.7H15.7L14.7 16.9999L13.7 15.2999L14.7 13.5999L15.7 11.8999H17.7H19.7Z" fill="white"/>
<path fill-rule="evenodd" clip-rule="evenodd" d="M33.4 11.8999L34.4 13.5999L35.4 15.2999L34.4 16.9999L33.4 18.7999H31.4H29.5L28.5 16.9999L27.5 15.2999L28.5 13.5999L29.5 11.8999H31.4H33.4Z" fill="white"/>
<path fill-rule="evenodd" clip-rule="evenodd" d="M12.7999 0L13.7999 1.7L14.7999 3.4L13.7999 5.1L12.7999 6.9H10.7999H8.7999L7.8999 5.1L6.8999 3.4L7.8999 1.7L8.7999 0H10.7999H12.7999Z" fill="white"/>
<path fill-rule="evenodd" clip-rule="evenodd" d="M26.6001 0L27.5001 1.7L28.5001 3.4L27.5001 5.1L26.6001 6.9H24.6001H22.6001L21.6001 5.1L20.6001 3.4L21.6001 1.7L22.6001 0H24.6001H26.6001Z" fill="white"/>
<path fill-rule="evenodd" clip-rule="evenodd" d="M8.7999 30.6998H10.7999H12.7999L13.7999 28.8998L14.7999 27.1998L13.7999 25.4998L12.7999 23.7998H10.7999H8.7999L7.8999 25.4998L6.8999 27.1998L7.8999 28.8998L8.7999 30.6998Z" fill="white"/>
<path fill-rule="evenodd" clip-rule="evenodd" d="M22.6001 30.6998H24.6001H26.6001L27.5001 28.8998L28.5001 27.1998L27.5001 25.4998L26.6001 23.7998H24.6001H22.6001L21.6001 25.4998L20.6001 27.1998L21.6001 28.8998L22.6001 30.6998Z" fill="white"/>
<path fill-rule="evenodd" clip-rule="evenodd" d="M49.8999 22.2998H55.2999V11.8998H60.2999V8.39981H44.8999V11.8998H49.8999V22.2998ZM67.3999 14.3998V11.8998H70.3999C71.9999 11.8998 72.7999 12.0998 72.7999 13.0998C72.7999 14.0998 71.9999 14.3998 70.5999 14.3998H67.3999ZM72.5999 8.39981H61.9999V22.2998H67.4999V18.0998H70.6999C71.9999 18.0998 72.4999 18.3998 72.6999 19.4998C72.7999 20.6998 72.5999 21.6998 73.0999 22.3998H79.0999V22.1998C78.3999 21.8998 78.3999 20.6998 78.3999 18.6998C78.2999 17.0998 78.1999 16.2998 76.6999 15.6998C78.0999 15.0998 78.9999 13.7998 78.9999 12.1998C78.9999 10.8998 78.3999 9.79981 77.3999 9.19981C76.2999 8.49981 74.7999 8.39981 72.5999 8.39981ZM78.9999 22.2998H84.7999L85.2999 20.8998H91.1999L91.6999 22.2998H97.4999L91.8999 8.39981H85.0999L78.9999 22.2998ZM86.4999 17.4998L88.2999 12.5998L89.9999 17.4998H86.4999ZM98.3999 22.2998H103.8V17.0998H110.7V13.6998H103.8V11.7998H112.3V8.39981H98.3999V22.2998ZM114.1 22.2998H119.5V17.0998H126.4V13.6998H119.5V11.7998H128V8.39981H114.1V22.2998ZM131.7 8.39981H129.7V22.2998H140.2V20.4998H131.7V8.39981ZM140.5 22.2998H142.6L144.4 18.2998H151.5L153.3 22.2998H155.4L149.2 8.39981H147.1L140.5 22.2998ZM145.3 16.4998L148.1 10.5998L150.8 16.4998H145.3ZM157 22.2998H164.6C167.9 22.2998 169.5 20.9998 169.5 18.1998C169.5 16.3998 168.6 15.2998 166.8 14.8998C168.3 14.2998 169 13.2998 169 11.7998C169 9.5998 167.5 8.2998 164.8 8.2998H157.1V22.2998H157ZM158.9 10.1998H164.3C166.1 10.1998 167 10.7998 167 12.1998C167 13.7998 166 14.1998 163.9 14.1998H159V10.1998H158.9ZM158.9 15.9998H164.3C166.4 15.9998 167.3 16.6998 167.3 18.2998C167.3 19.7998 166.2 20.3998 164 20.3998H158.9V15.9998Z" fill="white"/>
<path fill-rule="evenodd" clip-rule="evenodd" d="M196.106 12.4465C196.106 11.627 195.879 10.8075 194.971 10.8075C194.124 10.8075 193.836 11.5663 193.821 12.3707C193.821 12.9777 194.063 13.9186 194.926 13.9186C195.773 13.9186 196.106 13.2053 196.106 12.4465ZM196.061 8H197.393V14.8747H196.091V14.2373H196.076C195.743 14.7988 195.153 15.0113 194.608 15.0113C193.094 15.0113 192.459 13.6758 192.459 12.2796C192.459 10.5192 193.458 9.65417 194.578 9.65417C195.44 9.65417 195.834 10.1246 196.046 10.4433H196.061V8ZM184.483 13.2144C184.483 13.4573 184.241 14.1098 183.575 14.1098C182.561 14.1098 182.545 13.002 182.545 12.4556C182.545 11.8183 182.757 10.9836 183.605 10.9836C184.241 10.9836 184.438 11.4692 184.498 11.8031H185.845C185.724 10.2248 184.407 9.86057 183.605 9.86057C181.895 9.86057 181.183 11.0291 181.183 12.6833C181.183 13.7456 181.622 15.2177 183.529 15.2177C185.391 15.2177 185.8 13.7456 185.845 13.2296H184.483V13.2144ZM189.924 12.6226V13.2751C189.924 13.8974 189.318 14.2768 188.728 14.2768C188.471 14.2768 188.107 14.1402 188.107 13.6545C188.107 13.1082 188.516 12.9716 189.016 12.8806C189.561 12.8047 189.788 12.7288 189.924 12.6226ZM188.213 11.6513C188.244 11.363 188.365 10.9381 189.031 10.9381C189.364 10.9381 189.909 10.9684 189.909 11.5299C189.909 11.7727 189.697 11.9245 189.137 11.97C187.865 12.0763 186.775 12.5619 186.775 13.7304C186.775 14.7776 187.547 15.2177 188.319 15.2177C189.228 15.2177 189.666 14.7927 189.969 14.474C189.999 14.7624 190.015 14.8383 190.09 15.0811H191.528V14.8686C191.362 14.8079 191.241 14.6865 191.241 14.0795V11.3326C191.241 10.073 189.939 9.86057 189.228 9.86057C188.183 9.86057 187.108 10.073 186.957 11.6362H188.213V11.6513ZM199.686 12.0307C199.761 11.363 200.094 10.9684 200.73 10.9684C201.154 10.9684 201.684 11.2264 201.759 12.0307H199.686ZM201.714 13.5787C201.608 13.9429 201.229 14.1402 200.851 14.1402C199.776 14.1402 199.686 13.2752 199.686 12.8958H203.137V12.3949C203.137 10.6497 202.183 9.86057 200.76 9.86057C198.535 9.86057 198.323 11.8183 198.323 12.4405C198.323 14.5348 199.428 15.2177 200.851 15.2177C201.714 15.2177 202.728 14.8079 203.076 13.5938H201.714V13.5787ZM204.067 15.0543V10.004H205.355V10.7501H205.383C205.555 10.4058 205.927 9.86057 206.814 9.86057C207.529 9.86057 207.873 10.1188 208.216 10.664C208.359 10.4345 208.76 9.86057 209.561 9.86057C210.534 9.86057 211.307 10.4345 211.307 11.5536V15.083H209.99V11.984C209.99 11.2379 209.676 10.9797 209.275 10.9797C208.617 10.9797 208.359 11.4388 208.359 12.0414V15.083H207.014V12.0127C207.014 11.5823 206.9 10.9797 206.213 10.9797C205.584 10.9797 205.383 11.4101 205.383 11.9553V15.0543H204.067ZM212.237 9.86057L214.101 15.1527C213.975 15.8593 213.709 15.9222 213.224 15.9222C213.157 15.9222 213.097 15.9164 213.049 15.9119C213.018 15.9089 212.992 15.9065 212.973 15.9065V16.9743C213.161 16.99 213.396 16.99 213.584 16.99H213.584C214.743 16.99 214.978 16.5032 215.541 14.8543L217.28 9.86057H215.87L214.837 13.6137H214.805L213.725 9.86057H212.237ZM178.648 13.2751V12.6226C178.512 12.7288 178.285 12.8047 177.74 12.8806C177.241 12.9716 176.832 13.1082 176.832 13.6545C176.832 14.1402 177.195 14.2768 177.453 14.2768C178.043 14.2768 178.648 13.8974 178.648 13.2751ZM177.755 10.9381C177.089 10.9381 176.968 11.363 176.938 11.6513V11.6362H175.682C175.833 10.073 176.908 9.86057 177.952 9.86057C178.664 9.86057 179.965 10.073 179.965 11.3326V14.0795C179.965 14.6865 180.086 14.8079 180.253 14.8686V15.0811H178.815C178.739 14.8383 178.724 14.7624 178.694 14.474C178.391 14.7927 177.952 15.2177 177.044 15.2177C176.272 15.2177 175.5 14.7776 175.5 13.7304C175.5 12.5619 176.59 12.0763 177.861 11.97C178.421 11.9245 178.633 11.7727 178.633 11.5299C178.633 10.9684 178.088 10.9381 177.755 10.9381Z" fill="white"/>
</svg>

<svg width="170" height="31" fill="none" xmlns="http://www.w3.org/2000/svg"><path fill-rule="evenodd" clip-rule="evenodd" d="m12.5 2.5 13.7 23.8-3.3 1.9L9.2 4.4l3.3-1.9Z" fill="#F66"/><path fill-rule="evenodd" clip-rule="evenodd" d="M26.2 4.4 12.5 28.2l-3.3-1.9L22.9 2.5l3.3 1.9Z" fill="#F66"/><path d="M31.5 13.4H4v3.8h27.5v-3.8Z" fill="#F66"/><path fill-rule="evenodd" clip-rule="evenodd" d="m5.9 11.9 1 1.7 1 1.7-1 1.7-1 1.8H2L1 17l-1-1.7 1-1.7 1-1.7h3.9ZM19.7 11.9l1 1.7 1 1.7-1 1.7-1 1.8h-4l-1-1.8-1-1.7 1-1.7 1-1.7h4ZM33.4 11.9l1 1.7 1 1.7-1 1.7-1 1.8h-3.9l-1-1.8-1-1.7 1-1.7 1-1.7h3.9ZM12.8 0l1 1.7 1 1.7-1 1.7-1 1.8h-4l-.9-1.8-1-1.7 1-1.7.9-1.7h4ZM26.6 0l.9 1.7 1 1.7-1 1.7-.9 1.8h-4l-1-1.8-1-1.7 1-1.7 1-1.7h4ZM8.8 30.7h4l1-1.8 1-1.7-1-1.7-1-1.7h-4l-.9 1.7-1 1.7 1 1.7.9 1.8ZM22.6 30.7h4l.9-1.8 1-1.7-1-1.7-.9-1.7h-4l-1 1.7-1 1.7 1 1.7 1 1.8ZM49.9 22.3h5.4V11.9h5V8.4H44.9v3.5h5v10.4Zm17.5-7.9v-2.5h3c1.6 0 2.4.2 2.4 1.2s-.8 1.3-2.2 1.3h-3.2Zm5.2-6H62v13.9h5.5v-4.2h3.2c1.3 0 1.8.3 2 1.4.1 1.2-.1 2.2.4 2.9h6v-.2c-.7-.3-.7-1.5-.7-3.5-.1-1.6-.2-2.4-1.7-3 1.4-.6 2.3-1.9 2.3-3.5 0-1.3-.6-2.4-1.6-3-1.1-.7-2.6-.8-4.8-.8ZM79 22.3h5.8l.5-1.4h5.9l.5 1.4h5.8L91.9 8.4h-6.8L79 22.3Zm7.5-4.8 1.8-4.9 1.7 4.9h-3.5Zm11.9 4.8h5.4v-5.2h6.9v-3.4h-6.9v-1.9h8.5V8.4H98.4v13.9Zm15.7 0h5.4v-5.2h6.9v-3.4h-6.9v-1.9h8.5V8.4h-13.9v13.9Zm17.6-13.9h-2v13.9h10.5v-1.8h-8.5V8.4Zm8.8 13.9h2.1l1.8-4h7.1l1.8 4h2.1l-6.2-13.9h-2.1l-6.6 13.9Zm4.8-5.8 2.8-5.9 2.7 5.9h-5.5Zm11.7 5.8h7.6c3.3 0 4.9-1.3 4.9-4.1 0-1.8-.9-2.9-2.7-3.3 1.5-.6 2.2-1.6 2.2-3.1 0-2.2-1.5-3.5-4.2-3.5h-7.7v14h-.1Zm1.9-12.1h5.4c1.8 0 2.7.6 2.7 2 0 1.6-1 2-3.1 2H159v-4h-.1Zm0 5.8h5.4c2.1 0 3 .7 3 2.3 0 1.5-1.1 2.1-3.3 2.1h-5.1V16Z" fill="#fff"/></svg>
